X:119
T:Holy Ghost, with Light Divine
%%stretchlast false
M:4/4
L:1/4
K:C clef=C1
"^I"[C,G,CE] "^IV¹"[A,,A,CF] "^I¹"[E,,G,CG] "^IV"[F,,F,CA]/ "^IVmaj7"[F,,E,CA]/ | "^i"[G,,D,CD] "^V"[G,,G,B,D] "^I"[C,G,CE]2 | "^V¹"[B,,G,DG] "^V/V"[D,^F,DA] "^V"[G,DB] "^I¹"[E,G,Cc] | "^vi7¹"[C,G,EA] "^II"[D,^F,DA]/ "^II7"[D,^F,CA]/ "^V"[G,,G,B,G]2 | "^I"[C,G,CE] "^IV¹"[A,,F,CF] "^I²"[G,,E,CG] "^IV"[F,,C,CA] | "^ii²"[A,,A,DF] "^VI"[A,,A,^CE]/ "^VI7"[A,,G,^CE]/ "^ii"[D,F,D]2 | "^V¹"[B,,G,DG] "^V7¹"[B,,G,DF]/ "^I"[C,G,CE]/ "^V7"[G,,F,B,D] "^vi"[A,,E,C] | "^ii7¹"[F,,A,CD] "^V"[G,,G,B,D]/ "^V7"[G,,F,B,D]/ "^I"[C,E,C]2 |]
